images/AnimocaBrands-logo.svg

<svg width="109" height="61" viewBox="0 0 109 61" fill="none" xmlns="http://www.w3.org/2000/svg">
<path fill-rule="evenodd" clip-rule="evenodd" d="M31.5202 2.53842C31.5202 2.65204 31.5201 2.76578 31.5202 2.8794C31.5213 3.80785 31.8161 4.04125 32.7441 3.89674C33.247 3.81845 33.7569 3.78175 34.2647 3.7405C36.0177 3.59828 36.0734 3.53879 36.0352 1.76553C36.0335 1.68986 36.0367 1.61362 36.0292 1.5384C35.9788 1.02842 35.7283 0.730865 35.1835 0.774626C34.2242 0.851665 33.2619 0.909672 32.3078 1.03002C31.8072 1.09327 31.5022 1.42 31.5194 1.97009C31.5252 2.15927 31.5202 2.3489 31.5202 2.53842V2.53842ZM45.3584 25.2688C44.623 27.3822 43.8877 29.4958 43.1231 31.6931C44.7114 31.5574 46.2048 31.4297 47.7688 31.2961C46.9885 29.23 46.2373 27.2408 45.486 25.2516L45.3584 25.2688ZM10.917 31.2129C11.5624 31.1689 12.1644 31.1497 12.7609 31.0818C13.6025 30.986 14.4485 30.8954 15.2765 30.725C16.0064 30.5747 16.5346 30.0952 16.7355 29.368C17.098 28.0562 16.7438 27.0747 15.3378 27.0122C13.8751 26.9471 12.4034 27.0866 10.917 27.1372V31.2129ZM26.7669 30.1848C27.894 30.0824 28.9935 30.0427 30.0699 29.8637C30.8154 29.7398 31.5728 29.5102 32.2454 29.1703C32.9767 28.8006 33.2221 27.8363 32.9934 26.9125C32.8196 26.2105 32.1644 25.62 31.3782 25.6325C29.8502 25.6566 28.3235 25.7635 26.7669 25.8375V30.1848ZM15.848 33.3746C14.7289 33.2771 13.5904 33.3858 12.4612 33.426C11.9436 33.4445 11.4278 33.5149 10.9128 33.5616V38.0915C12.1782 37.9932 13.3925 37.9512 14.5896 37.7849C15.2455 37.6937 15.9181 37.4778 16.502 37.1662C17.4188 36.6766 17.6012 35.7697 17.486 34.8135C17.3847 33.9729 16.9054 33.4667 15.848 33.3746V33.3746ZM91.8021 23.3101C92.5402 23.6103 93.3533 23.736 94.1404 23.9039C96.1213 24.3263 98.2332 24.4238 99.6179 26.2503V20.9697C99.5901 20.966 99.5624 20.9624 99.5347 20.9586C99.4284 21.2446 99.3422 21.5398 99.2123 21.8145C98.7542 22.781 97.3025 23.0676 96.7664 21.9791C96.6421 21.7266 96.5215 21.4546 96.3318 21.2559C95.9493 20.8548 95.5811 20.322 95.0994 20.1566C93.7953 19.7085 92.5149 19.9268 91.4432 20.8405C90.5214 21.6262 90.6869 22.8566 91.8021 23.3101V23.3101ZM65.578 20.4663C63.2658 20.6696 60.8655 20.8805 58.3972 21.0974C60.719 24.4183 63.003 27.6852 65.287 30.952C65.3298 30.9408 65.3724 30.9296 65.4151 30.9184V30.3256C65.4151 27.7826 65.4036 25.2396 65.4224 22.6968C65.4278 21.9709 65.5211 21.2455 65.578 20.4663V20.4663ZM35.5055 6.93008C35.4577 6.41452 35.1068 6.09474 34.5911 6.13668C34.0263 6.18272 33.4607 6.24357 32.9025 6.33919C32.2486 6.4511 32.0899 6.66501 32.0892 7.33317C32.0872 9.42187 32.0885 11.5107 32.0887 13.5994C32.089 15.7262 32.0863 17.8528 32.0905 19.9796C32.0917 20.5438 32.349 20.8278 32.8664 20.8011C33.3754 20.7749 33.8808 20.6785 34.3899 20.6505C35.3076 20.5997 35.5188 20.1005 35.5157 19.2915C35.5005 15.3039 35.5089 11.3163 35.5087 7.32872C35.5087 7.19584 35.5177 7.06194 35.5055 6.93008V6.93008ZM75.0982 32.6921C76.1833 32.5779 77.2302 32.4392 78.2818 32.3634C80.1408 32.2296 81.1788 31.1378 81.6989 29.4645C82.2208 27.7856 82.2434 26.0709 81.8176 24.372C81.3892 22.6632 80.2934 21.8463 78.5307 21.8616C77.5844 21.8697 76.6385 21.9608 75.6925 21.9589C75.1857 21.9579 75.0559 22.1354 75.059 22.6259C75.0794 25.7963 75.069 28.967 75.0706 32.1376C75.0707 32.3045 75.0868 32.4716 75.0982 32.6921V32.6921ZM86.3799 15.7034C88.1784 16.0221 89.9143 15.628 91.6184 15.1293C93.4033 14.6071 93.0446 14.4478 93.059 13.166C93.0699 12.1718 92.8018 12.0241 91.8063 12.2261C90.5168 12.4878 89.2144 12.7131 87.9066 12.8471C86.9711 12.943 86.3436 12.2591 86.3373 11.3182C86.3315 10.445 86.336 9.57173 86.336 8.69844C86.336 7.92008 86.3945 7.13636 86.3223 6.36472C86.2142 5.2064 87.1433 4.15145 88.5183 4.18712C89.7283 4.21846 90.9395 4.20729 92.1502 4.21344C92.779 4.21675 93.0465 3.95726 93.0592 3.32727C93.0656 3.00464 93.0432 2.68065 93.0652 2.35939C93.1014 1.83379 92.8694 1.55846 92.3571 1.4502C90.5681 1.07218 88.7663 1.1025 87.0086 1.50946C84.6139 2.06377 82.9804 4.04957 82.9271 6.33349C82.8855 8.117 82.8915 9.90279 82.9264 11.6865C82.9674 13.7834 84.3213 15.3385 86.3799 15.7034V15.7034ZM16.4948 21.1604C16.4987 21.9836 16.7938 22.2528 17.6113 22.1944C17.9884 22.1676 18.3634 22.1061 18.7408 22.0871C19.5849 22.0446 19.8954 21.7329 19.8956 20.8922C19.8963 17.9872 19.893 15.0819 19.8976 12.1769C19.8991 11.169 20.6146 10.3267 21.5255 10.2327C22.2215 10.1609 22.9174 10.0872 23.613 10.0123C24.7305 9.89197 25.4734 10.5502 25.484 11.6759C25.4884 12.1316 25.4854 12.5873 25.4854 13.0429C25.4855 15.4923 25.4819 17.9418 25.4877 20.3912C25.4896 21.1844 25.8643 21.4882 26.6434 21.3788C26.9798 21.3316 27.3206 21.3163 27.6595 21.2847C28.5758 21.199 28.9385 20.8707 28.9111 19.9799C28.8662 18.5193 28.899 17.0562 28.899 15.5942C28.899 14.17 28.899 12.7459 28.899 11.3219C28.8988 9.27064 27.7175 7.67927 25.7042 7.28827C23.7476 6.90832 21.7587 7.08872 19.8983 7.75973C17.9779 8.45239 16.6886 9.84866 16.5557 11.9931C16.456 13.6009 16.5029 15.2181 16.4943 16.8313C16.4867 18.2743 16.4879 19.7174 16.4948 21.1604V21.1604ZM9.92587 19.6832C9.92119 19.8024 9.62216 19.9913 9.44551 20.0092C8.35364 20.1204 7.25835 20.2012 6.16294 20.2741C5.17169 20.3399 4.53099 19.9035 4.38592 19.0935C4.22945 18.2201 4.76359 17.3228 5.65011 17.0839C6.11906 16.9574 6.62016 16.9474 7.10769 16.8922C7.57778 16.8391 8.04833 16.7883 8.51968 16.7499C8.96881 16.7132 9.4193 16.6939 9.94797 16.6625C9.94797 17.6835 9.96461 18.6844 9.92587 19.6832V19.6832ZM13.3158 21.3368C13.3182 18.5456 13.3206 15.7545 13.3123 12.9635C13.311 12.5303 13.3137 12.0827 13.2116 11.6669C12.7601 9.82769 11.1066 8.48225 9.2022 8.54573C7.81357 8.59211 6.42084 8.78927 5.05032 9.03338C3.79787 9.2564 3.69417 9.47224 3.69508 10.7483C3.69519 10.9001 3.692 11.0522 3.69816 11.2039C3.72471 11.8607 3.99503 12.0579 4.63778 11.9579C5.75461 11.784 6.88831 11.6974 7.99169 11.4635C9.22317 11.2024 10.2673 12.3027 9.86148 13.7322C8.89644 13.8184 7.92161 13.9264 6.94392 13.9882C5.36737 14.0881 3.89987 14.4421 2.64366 15.4867C0.752112 17.0596 0.35632 19.9474 1.87932 21.7254C3.09552 23.1451 4.74604 23.359 6.48819 23.1972C8.35307 23.0241 10.2152 22.8195 12.0815 22.6612C13.1047 22.5745 13.3149 22.388 13.3158 21.3368V21.3368ZM103.917 11.4427C102.91 11.535 101.936 11.6256 100.962 11.713C100.548 11.7501 100.128 11.8439 99.7219 11.8003C98.9208 11.7139 98.3714 11.0832 98.3392 10.3185C98.3077 9.57014 98.9803 8.64647 99.7467 8.54539C101.112 8.36544 102.488 8.26515 103.917 8.12601V11.4427ZM107.305 3.96558C107.292 1.97192 105.777 0.341911 103.794 0.0835577C102.205 -0.123284 100.667 0.174956 99.1402 0.517185C97.6893 0.842434 97.6942 0.891438 97.702 2.38891C97.7025 2.50287 97.6996 2.61706 97.7065 2.73068C97.7448 3.3536 98.0753 3.55941 98.6924 3.46049C99.9378 3.26095 101.188 3.07724 102.443 2.96157C102.753 2.93308 103.133 3.13 103.404 3.32898C104.02 3.78278 103.979 4.46542 103.918 5.21791C102.986 5.29654 102.1 5.35945 101.216 5.44914C100.017 5.57074 98.8131 5.65507 97.7143 6.24904C95.7505 7.3106 94.7664 9.12021 94.999 11.3113C95.2112 13.3112 97.3463 14.8867 99.6672 14.7077C101.912 14.5346 104.153 14.3161 106.396 14.1093C107.079 14.0462 107.312 13.7807 107.312 13.0816C107.314 10.043 107.323 7.00416 107.305 3.96558V3.96558ZM38.6377 19.3852C38.6376 19.4225 38.6521 19.4598 38.6548 19.4974C38.6915 19.9957 38.9849 20.202 39.455 20.1716C39.965 20.1386 40.4732 20.0793 40.9822 20.0346C41.7785 19.965 42.0054 19.7232 42.0057 18.9274C42.0068 16.0595 42.003 13.1918 42.0078 10.324C42.0098 9.13925 42.7387 8.2941 43.8513 8.18755C44.4538 8.12988 45.0593 8.09957 45.6638 8.06595C47.0844 7.98697 47.6138 8.4794 47.6158 9.89072C47.6193 12.6256 47.6166 15.3605 47.6174 18.0952C47.6174 18.285 47.6091 18.4769 47.6338 18.6639C47.6941 19.1187 47.9173 19.3968 48.4248 19.3505C48.9146 19.3061 49.405 19.2642 49.896 19.2375C50.6758 19.1951 51.0073 18.8533 51.0075 18.0635C51.0081 15.2147 51.0066 12.366 51.0082 9.51715C51.009 8.21524 51.7721 7.43232 53.061 7.37932C53.5713 7.35824 54.0806 7.3057 54.5889 7.2526C55.997 7.1057 56.6553 7.68429 56.6569 9.09036C56.6595 11.4833 56.657 13.8763 56.6584 16.2693C56.6585 16.7819 56.6566 17.2949 56.6732 17.807C56.6896 18.3117 56.96 18.5769 57.471 18.5486C58.0569 18.5162 58.646 18.4945 59.2254 18.4107C59.8033 18.327 60.0246 18.0183 60.025 17.3626C60.0281 14.3239 60.0083 11.2852 60.0239 8.24658C60.0338 6.32118 58.6774 5.03261 57.1475 4.53402C56.0708 4.18324 54.9822 4.33983 53.8849 4.40695C52.2313 4.50838 50.6533 4.77425 49.4212 5.85188C48.7458 5.61382 48.1916 5.28788 47.6159 5.24389C46.5498 5.16241 45.4655 5.18429 44.3993 5.28048C43.5646 5.35581 42.7008 5.49575 41.9287 5.80413C40.0121 6.56951 38.7348 7.95324 38.6789 10.1002C38.5985 13.1935 38.6446 16.2901 38.6377 19.3852V19.3852ZM71.7242 12.5116C72.2802 12.523 72.6697 12.9301 72.6603 13.4898C72.6495 14.1283 72.1445 14.592 71.4723 14.5805C70.9473 14.5716 70.5699 14.1773 70.572 13.6403C70.5749 13.0074 71.094 12.4986 71.7242 12.5116V12.5116ZM75.3337 12.17C75.825 12.1849 76.2683 12.6289 76.28 13.1177C76.2938 13.6955 75.6983 14.2988 75.1206 14.2921C74.6045 14.2859 74.1362 13.8139 74.1439 13.3073C74.1525 12.727 74.7539 12.1523 75.3337 12.17V12.17ZM61.0726 4.91614C61.4961 4.87112 61.8986 4.62998 62.1825 4.52433C63.3397 5.5802 64.4999 6.63857 65.7581 7.78651C64.9384 8.06538 64.2922 8.2851 63.6595 8.50026C63.2458 7.87723 62.8221 7.69249 62.2458 7.85022C61.7819 7.97728 61.4048 8.4908 61.3705 8.98916C61.3344 9.51612 61.5641 9.86975 62.0334 10.0628C62.6014 10.2968 63.0625 10.055 63.7184 9.19737C64.2544 9.44455 64.79 9.71635 65.3458 9.9379C65.6514 10.0596 65.7055 10.2454 65.7189 10.5427C65.7409 11.0298 65.7755 11.5276 65.8974 11.9969C66.8814 15.7867 70.3459 17.9062 74.216 17.2119C78.6481 16.4169 82.1664 11.8332 81.0841 7.11744C80.2364 3.42414 76.9569 1.46057 73.5985 1.71892C72.094 1.83471 70.695 2.3366 69.4552 3.22345C69.2117 3.3977 69.0211 3.44089 68.7549 3.22562C68.3328 2.8843 67.8654 2.5986 67.427 2.29614C67.7022 1.37042 67.6155 0.957992 67.0898 0.607101C66.6635 0.322651 66.0624 0.369604 65.6167 0.722432C65.1973 1.05429 65.0104 1.73647 65.2096 2.20736C65.4467 2.7676 65.8573 2.93125 66.8579 2.82572C66.9765 3.56842 67.0958 4.31464 67.2268 5.13358C65.7167 4.62223 64.3099 4.15532 62.914 3.65833C62.7745 3.60876 62.6465 3.38961 62.6046 3.22573C62.386 2.37386 61.8258 1.98981 60.9722 2.14252C60.2289 2.27551 59.7092 3.01319 59.7836 3.82996C59.8412 4.46325 60.3953 4.98816 61.0726 4.91614V4.91614ZM98.9194 31.6728C97.0456 34.0241 92.5385 34.5243 90.1138 33.4485C88.6533 32.8006 87.5408 31.1657 87.5897 29.7634C87.6128 29.1059 88.0817 28.5147 88.7074 28.3544C89.4279 28.1696 89.9228 28.3877 90.3032 29.0836C90.5466 29.529 90.7606 29.9903 90.9955 30.4404C91.3071 31.0374 91.8358 31.3851 92.4645 31.4996C93.6689 31.7193 94.8365 31.5919 95.8784 30.8717C96.6391 30.3458 97.0629 29.6251 96.9104 28.6941C96.7628 27.793 96.0727 27.3865 95.2522 27.2082C93.9476 26.9247 92.6285 26.7057 91.3283 26.4046C90.1842 26.1397 89.1332 25.6647 88.4441 24.6452C87.5338 23.2987 87.6948 21.0928 88.8745 19.8539C89.4846 19.2132 90.2509 18.7213 90.8683 18.225C87.4615 18.5274 83.9169 18.842 80.355 19.158C80.3884 19.1942 80.3983 19.2149 80.4127 19.2188C80.5042 19.2437 80.5962 19.2674 80.6891 19.287C82.8607 19.7459 84.2028 21.1164 84.8592 23.1774C85.58 25.4393 85.5502 27.7377 84.8435 29.984C84.0349 32.5538 82.3348 34.2622 79.6092 34.7408C78.3461 34.9627 77.0604 35.0653 75.7813 35.1825C74.9338 35.2602 74.08 35.2964 73.2288 35.2992C72.4624 35.3018 72.1222 34.9987 71.9712 34.2647C71.9106 33.9705 71.8679 33.6668 71.8673 33.3673C71.8604 29.6636 71.8701 25.9598 71.8576 22.2561C71.8546 21.3641 71.8432 20.4896 72.695 19.832C71.0906 19.9762 69.5865 20.1113 68.1755 20.2382C68.2539 20.8701 68.3834 21.4422 68.3864 22.0148C68.4047 25.7755 68.3979 29.5363 68.393 33.297C68.3923 33.7328 68.3752 34.1711 68.3253 34.6037C68.2404 35.3399 67.8646 35.8654 67.1369 36.1031C66.1424 36.428 65.2892 36.1074 64.5578 35.0699C63.2396 33.2002 61.9437 31.3146 60.6399 29.4348C59.8514 28.2981 59.0651 27.1597 58.1874 25.8913V29.3511C58.1874 31.3264 58.1949 33.3018 58.1841 35.2771C58.1784 36.2971 57.4923 37.0128 56.5589 37.0133C55.6803 37.0138 55.2416 36.4827 55.2 35.3646C55.1936 35.1939 55.1964 35.0229 55.1964 34.8519C55.1962 31.1102 55.1828 27.3683 55.2078 23.6267C55.2129 22.8808 55.3657 22.1361 55.4535 21.3612C52.7576 21.5988 49.9381 21.8474 47.1278 22.0951C47.3849 22.5876 47.6582 23.0348 47.8608 23.512C48.8398 25.8165 49.8098 28.1252 50.7633 30.4404C51.4434 32.092 52.1216 33.7455 52.7425 35.4197C53.0331 36.2032 52.5333 37.0382 51.7063 37.3611C50.8983 37.6768 50.2626 37.4254 49.8581 36.5642C49.4903 35.7813 49.1532 34.9813 48.8558 34.1693C48.7221 33.8045 48.5553 33.6681 48.1677 33.7024C46.2077 33.8765 44.246 34.0308 42.2715 34.1931C42.2171 34.3514 42.1681 34.5119 42.1074 34.6676C41.7252 35.6498 41.3604 36.6394 40.9491 37.6092C40.7011 38.1939 40.2048 38.4207 39.571 38.4049C38.9977 38.3907 38.4943 38.1473 38.3671 37.6333C38.2454 37.1411 38.289 36.5472 38.4469 36.0586C38.8574 34.7892 39.3653 33.551 39.8439 32.3041C41.1084 29.0084 42.3781 25.7144 43.6519 22.4036C40.4621 22.6846 37.1977 22.9721 33.7387 23.2769C35.971 24.2024 36.5625 25.883 36.2619 27.9102C35.9484 30.0256 34.3517 30.986 32.5026 31.6139C32.535 31.6867 32.54 31.7333 32.5647 31.749C34.4881 32.9674 35.6342 34.7899 36.4681 36.8371C36.5889 37.1337 36.5796 37.5486 36.4766 37.8575C36.2609 38.5041 35.6687 38.7496 35.0528 38.8191C34.3413 38.8995 33.8227 38.496 33.4501 37.9306C32.7437 36.858 32.079 35.7576 31.3631 34.6916C30.9849 34.1283 30.582 33.5669 30.1079 33.0856C29.153 32.1165 27.9366 32.4717 26.7321 32.4812C26.7321 34.0141 26.7415 35.4914 26.7267 36.9683C26.7219 37.4393 26.6965 37.9184 26.6035 38.3783C26.4461 39.1569 25.6578 39.6822 24.8112 39.6341C24.0701 39.592 23.6324 39.1199 23.5323 38.2391C23.5003 37.9571 23.4795 37.672 23.4792 37.3883C23.4758 33.6276 23.4648 29.8667 23.4885 26.1062C23.4926 25.4629 23.6492 24.8206 23.7377 24.1614C21.9119 24.3234 19.9698 24.4957 17.9101 24.6784C20.7047 26.0873 20.7972 29.9547 17.9451 31.5346C18.5919 31.9633 19.4527 32.3079 19.9843 32.9326C21.1629 34.3174 20.9972 35.9144 20.2102 37.4431C19.2822 39.2457 17.5957 39.8552 15.7292 40.0831C14.2077 40.269 12.6811 40.4524 11.1518 40.5188C10.1384 40.5628 9.07776 40.9927 8.10121 40.3045C7.94326 40.7793 8.14349 40.9124 8.55672 41.0201C18.9939 43.7411 29.4272 46.4774 39.8609 49.2118C53.5304 52.7944 67.2001 56.3761 80.8666 59.9703C81.2422 60.0691 81.4363 60.0194 81.6502 59.6817C87.5754 50.3286 93.5128 40.9833 99.4383 31.6304C99.5945 31.3837 99.6397 31.0665 99.7365 30.7821C99.3856 31.0487 99.1619 31.3683 98.9194 31.6728V31.6728Z" fill="white"/>
</svg>

<svg xmlns="http://www.w3.org/2000/svg" width="109" height="61" fill="none"><path fill="#fff" fill-rule="evenodd" d="M31.52 2.538v.341c.001.929.296 1.162 1.224 1.018.503-.079 1.013-.115 1.52-.156 1.754-.143 1.81-.202 1.771-1.975-.002-.076.002-.152-.006-.228-.05-.51-.3-.807-.846-.763-.959.077-1.921.135-2.875.255-.5.063-.806.39-.789.94.006.19.001.379.001.568Zm13.838 22.73-2.235 6.425 4.646-.397-2.283-6.044-.128.017Zm-34.441 5.945c.645-.044 1.247-.063 1.844-.131.841-.096 1.688-.187 2.516-.357.73-.15 1.258-.63 1.458-1.357.363-1.312.009-2.293-1.397-2.356-1.463-.065-2.935.075-4.421.125v4.076Zm15.85-1.028c1.127-.103 2.227-.142 3.303-.321a7.667 7.667 0 0 0 2.175-.694c.732-.37.977-1.334.748-2.258-.173-.701-.829-1.292-1.615-1.28-1.528.025-3.055.131-4.611.205v4.348Zm-10.919 3.19c-1.12-.098-2.258.01-3.387.051-.517.018-1.033.089-1.548.136v4.53c1.265-.099 2.48-.14 3.677-.307a5.852 5.852 0 0 0 1.912-.619c.917-.49 1.1-1.396.984-2.352-.101-.841-.58-1.347-1.638-1.44ZM91.802 23.31c.738.3 1.551.426 2.338.594 1.981.422 4.093.52 5.478 2.346v-5.28l-.083-.011c-.107.286-.193.58-.323.855-.458.967-1.91 1.254-2.446.165-.124-.252-.245-.524-.434-.723-.383-.401-.75-.934-1.233-1.1-1.304-.447-2.584-.23-3.656.684-.922.786-.756 2.017.36 2.47Zm-26.224-2.844-7.18.631 6.889 9.855.128-.034v-.592c0-2.543-.011-5.086.007-7.63.006-.725.1-1.45.156-2.23ZM35.505 6.93c-.047-.515-.398-.835-.914-.793-.565.046-1.13.107-1.688.202-.654.112-.813.326-.814.994-.002 2.089 0 4.178 0 6.266 0 2.127-.003 4.254.002 6.38 0 .565.258.849.775.822.51-.026 1.015-.122 1.524-.15.918-.051 1.129-.55 1.126-1.36-.015-3.987-.007-7.975-.007-11.962 0-.133.009-.267-.004-.399Zm39.593 25.762c1.085-.114 2.132-.253 3.184-.329 1.859-.133 2.897-1.225 3.417-2.898.522-1.68.544-3.394.119-5.093-.429-1.709-1.525-2.526-3.287-2.51-.947.008-1.893.099-2.839.097-.506-.001-.636.176-.633.667.02 3.17.01 6.341.012 9.512 0 .166.016.334.027.554ZM86.38 15.703c1.798.32 3.534-.075 5.238-.574 1.785-.522 1.427-.681 1.441-1.963.01-.994-.257-1.142-1.253-.94-1.29.262-2.592.487-3.9.621-.935.096-1.562-.588-1.569-1.529-.005-.873-.001-1.746-.001-2.62 0-.778.058-1.562-.014-2.333-.108-1.159.821-2.214 2.196-2.178 1.21.031 2.421.02 3.632.026.629.004.896-.256.91-.886.006-.322-.017-.646.005-.968.036-.525-.196-.8-.708-.909a12.291 12.291 0 0 0-5.348.06c-2.395.554-4.029 2.54-4.082 4.823-.042 1.784-.036 3.57 0 5.354.04 2.096 1.394 3.652 3.453 4.016ZM16.495 21.16c.004.824.299 1.093 1.116 1.034.377-.026.752-.088 1.13-.107.844-.042 1.154-.354 1.155-1.195 0-2.905-.003-5.81.002-8.715.001-1.008.717-1.85 1.628-1.944a470.02 470.02 0 0 0 2.087-.22c1.117-.121 1.86.537 1.871 1.663.004.456.001.911.001 1.367 0 2.45-.003 4.899.003 7.348.002.793.376 1.097 1.155.988.337-.047.678-.063 1.017-.094.916-.086 1.279-.414 1.251-1.305-.045-1.46-.012-2.924-.012-4.386v-4.272c0-2.051-1.181-3.643-3.195-4.034-1.956-.38-3.945-.2-5.806.472-1.92.692-3.21 2.089-3.342 4.233-.1 1.608-.053 3.225-.062 4.838a430.833 430.833 0 0 0 0 4.33Zm-6.57-1.477c-.004.12-.303.308-.48.326a94.003 94.003 0 0 1-3.282.265c-.991.066-1.632-.37-1.777-1.18-.157-.874.378-1.771 1.264-2.01.47-.127.97-.137 1.458-.192.47-.053.94-.104 1.412-.142.449-.037.9-.056 1.428-.087 0 1.02.017 2.021-.022 3.02Zm3.39 1.654c.003-2.791.006-5.582-.003-8.373-.001-.434.002-.881-.1-1.297-.452-1.84-2.105-3.185-4.01-3.121-1.388.046-2.781.243-4.152.487-1.252.223-1.356.44-1.355 1.715 0 .152-.003.304.003.456.027.657.297.854.94.754 1.117-.174 2.25-.26 3.354-.495 1.231-.26 2.275.84 1.87 2.27-.966.085-1.94.193-2.918.255-1.577.1-3.044.454-4.3 1.499-1.892 1.573-2.288 4.46-.765 6.238 1.217 1.42 2.867 1.634 4.61 1.472 1.864-.173 3.726-.377 5.593-.536 1.023-.087 1.233-.273 1.234-1.324Zm90.602-9.894c-1.007.092-1.981.183-2.955.27-.414.037-.834.13-1.24.087a1.528 1.528 0 0 1-1.383-1.482c-.031-.748.641-1.672 1.408-1.773 1.365-.18 2.741-.28 4.17-.419v3.317Zm3.388-7.477c-.013-1.994-1.528-3.624-3.511-3.882-1.589-.207-3.127.091-4.654.433-1.45.325-1.446.374-1.438 1.872 0 .114-.002.228.005.342.038.623.368.828.985.73 1.246-.2 2.496-.384 3.751-.5.31-.028.69.169.961.368.616.454.575 1.136.514 1.889-.932.079-1.818.141-2.702.231-1.199.122-2.403.206-3.502.8C95.751 7.311 94.766 9.12 95 11.311c.212 2 2.347 3.576 4.668 3.397 2.245-.173 4.486-.392 6.729-.599.683-.063.916-.328.916-1.027.002-3.039.011-6.078-.007-9.116Zm-68.667 15.42c0 .037.014.074.017.111.036.499.33.705.8.675.51-.033 1.018-.093 1.527-.137.797-.07 1.023-.312 1.024-1.108 0-2.867-.003-5.735.002-8.603.002-1.185.73-2.03 1.843-2.136.603-.058 1.208-.088 1.813-.122 1.42-.079 1.95.413 1.952 1.825.003 2.735 0 5.47.001 8.204 0 .19-.008.382.017.569.06.455.283.733.79.686.49-.044.981-.086 1.472-.113.78-.042 1.111-.384 1.111-1.173l.001-8.547c.001-1.302.764-2.085 2.053-2.138.51-.02 1.02-.073 1.528-.126 1.408-.147 2.066.431 2.068 1.837.003 2.393 0 4.786.001 7.18 0 .512-.001 1.025.015 1.537.017.505.287.77.798.742.586-.033 1.175-.055 1.754-.138.578-.084.8-.393.8-1.048.003-3.04-.017-6.078-.001-9.116.01-1.926-1.347-3.214-2.877-3.713-1.076-.35-2.165-.194-3.262-.127-1.654.101-3.232.367-4.464 1.445-.675-.238-1.23-.564-1.805-.608a19.449 19.449 0 0 0-3.217.036c-.834.076-1.698.216-2.47.524-1.917.766-3.194 2.15-3.25 4.296-.08 3.094-.034 6.19-.041 9.285Zm33.086-6.874c.556.011.946.418.936.978-.01.638-.516 1.102-1.188 1.09-.525-.008-.902-.403-.9-.94a1.132 1.132 0 0 1 1.152-1.128Zm3.61-.342c.491.015.934.459.946.948.014.577-.582 1.18-1.16 1.174-.516-.006-.984-.478-.976-.985.008-.58.61-1.155 1.19-1.137ZM61.073 4.916c.423-.045.826-.286 1.11-.392l3.575 3.263-2.098.713c-.414-.623-.838-.808-1.414-.65-.464.127-.841.64-.876 1.14-.036.526.194.88.663 1.073.568.234 1.03-.008 1.685-.866.536.248 1.072.52 1.628.74.305.123.36.308.373.606.022.487.056.985.178 1.454.984 3.79 4.449 5.91 8.319 5.215 4.432-.795 7.95-5.379 6.868-10.095-.848-3.693-4.127-5.656-7.486-5.398a8.099 8.099 0 0 0-4.143 1.504c-.243.175-.434.218-.7.003-.422-.342-.89-.627-1.328-.93.275-.926.188-1.338-.337-1.689-.427-.284-1.028-.237-1.473.115-.42.332-.607 1.014-.407 1.485.237.56.647.724 1.648.619l.369 2.308c-1.51-.512-2.917-.979-4.313-1.476-.14-.05-.267-.268-.31-.432-.218-.852-.778-1.236-1.632-1.083-.743.133-1.263.87-1.188 1.687.057.633.611 1.158 1.289 1.086Zm37.846 26.757c-1.873 2.351-6.38 2.851-8.805 1.776-1.46-.648-2.573-2.283-2.524-3.686.023-.657.492-1.248 1.117-1.409.72-.184 1.216.034 1.596.73.244.445.458.906.693 1.356.311.597.84.945 1.469 1.06 1.204.22 2.371.092 3.413-.628.761-.526 1.185-1.247 1.032-2.178-.147-.901-.837-1.307-1.658-1.486-1.304-.283-2.623-.502-3.924-.803-1.144-.265-2.195-.74-2.884-1.76-.91-1.346-.75-3.552.43-4.791.61-.64 1.377-1.133 1.994-1.629l-10.513.933c.033.036.043.057.058.06.091.026.183.05.276.069 2.172.459 3.514 1.83 4.17 3.89.721 2.262.691 4.56-.015 6.807-.81 2.57-2.51 4.278-5.235 4.757-1.263.222-2.549.324-3.828.441-.847.078-1.701.114-2.552.117-.767.003-1.107-.3-1.258-1.034a4.53 4.53 0 0 1-.104-.898c-.007-3.703.003-7.407-.01-11.11-.002-.893-.014-1.767.838-2.425l-4.52.406c.079.632.208 1.204.211 1.777.019 3.76.012 7.521.007 11.282 0 .436-.018.874-.068 1.307-.085.736-.46 1.261-1.188 1.5-.995.324-1.848.003-2.58-1.034-1.317-1.87-2.613-3.755-3.917-5.635-.789-1.137-1.575-2.275-2.453-3.544v3.46c0 1.975.008 3.95-.003 5.926-.006 1.02-.692 1.736-1.625 1.736-.879 0-1.317-.53-1.359-1.648-.006-.171-.004-.342-.004-.513 0-3.742-.013-7.484.012-11.225.005-.746.158-1.49.245-2.266l-8.325.734c.257.493.53.94.733 1.417a680.165 680.165 0 0 1 2.902 6.928c.68 1.652 1.359 3.305 1.98 4.98.29.783-.21 1.618-1.037 1.941-.808.316-1.443.064-1.848-.797a29.508 29.508 0 0 1-1.002-2.395c-.134-.364-.3-.5-.688-.467-1.96.175-3.922.329-5.896.491-.055.158-.104.319-.165.475-.382.982-.747 1.971-1.158 2.941-.248.585-.744.812-1.378.796-.573-.014-1.077-.258-1.204-.772-.122-.492-.078-1.086.08-1.574.41-1.27.918-2.508 1.397-3.755 1.264-3.296 2.534-6.59 3.808-9.9l-9.913.873c2.232.925 2.824 2.606 2.523 4.633-.314 2.116-1.91 3.076-3.76 3.704.033.073.038.12.063.135 1.923 1.218 3.07 3.04 3.903 5.088.12.297.112.712.009 1.02-.216.647-.808.893-1.424.962-.712.08-1.23-.323-1.603-.888-.706-1.073-1.371-2.173-2.087-3.24-.378-.563-.781-1.124-1.255-1.605-.955-.97-2.171-.614-3.376-.605 0 1.533.01 3.01-.005 4.487-.005.471-.03.95-.123 1.41-.158.779-.946 1.304-1.793 1.256-.74-.042-1.179-.514-1.279-1.395a7.637 7.637 0 0 1-.053-.85c-.003-3.761-.014-7.522.01-11.283.004-.643.16-1.285.249-1.945l-5.828.517c2.795 1.41 2.887 5.277.035 6.857.647.428 1.508.773 2.04 1.398 1.178 1.384 1.012 2.981.225 4.51-.928 1.803-2.614 2.412-4.48 2.64-1.522.186-3.049.37-4.578.436-1.014.044-2.074.474-3.05-.215-.159.475.041.608.455.716 10.437 2.721 20.87 5.457 31.304 8.192 13.67 3.582 27.34 7.164 41.006 10.758.375.1.57.05.783-.288 5.925-9.353 11.863-18.699 17.788-28.052.156-.246.202-.563.299-.848-.351.267-.575.586-.818.89Z" clip-rule="evenodd"/></svg>
